assets/symbols/mulberry/extra_2.svg

<svg height="850.394" viewBox="0 0 850.394 850.394" width="850.394" xmlns="http://www.w3.org/2000/svg" xmlns:xlink="http://www.w3.org/1999/xlink"><pattern id="a" height="72" patternUnits="userSpaceOnUse" viewBox="28.856 -76.621 71.999 72" width="71.999" x="368" y="480.385"><path d="m28.856-4.621v-72h71.999v72z" fill="none"/><path d="m5.106-10.621 6 6m-6 0 6-6" fill="#fff"/><path d="m21.372-66.105 17.999-18m-17.999 24 23.999-24m-23.999 30 29.999-30m-29.999 36 35.999-36m-35.999 42 41.999-42m-41.999 48 47.999-48m-47.999 54 53.999-54m-53.999 60 59.999-60m-59.999 66 65.999-66m-65.999 72 71.999-72m-71.999 78 77.999-78m-77.999 83.999 83.999-83.999m-77.999 83.999 77.999-77.999m-72 77.999 72-71.999m-66 71.999 66-65.999m-60 65.999 60-59.999m-54 59.999 54-53.999m-48 53.999 48-47.999m-42 47.999 42-41.999m-36 41.999 36-35.999m-30 35.999 30-29.999m-24 29.999 24-23.999m-18 23.999 18-17.999m-12 17.999 12-11.999" fill="none" stroke="#231f20" stroke-linejoin="round" stroke-width=".3"/><path d="m.106-63.121 10-10" fill="none" stroke="#231f20" stroke-linejoin="bevel" stroke-width=".3"/></pattern><pattern id="b" patternTransform="matrix(6.7617 0 0 6.7617 48373.29 45342.605)" xlink:href="#a"/><path d="m590.19 404.2h160.59v238.35h-160.59z" fill="#abd150"/><path d="m513 221.35h16.62v51.45l-98.97 126.51v4.81h-61.62v-69.34h1.13l90.3-113.43zm16.62 118.91v63.86h-45.1v-4.59l44.37-58.32c.27-.36.52-.67.73-.95z" fill="#58b947"/><path d="m529.62 404.12v238.14h-160.59v-238.14h160.09z" fill="#abd150"/><path d="m528.89 341.21-44.37 58.32c0-.62 35.91-47.33 44.37-58.32z" fill="url(#b)"/><path d="m529.62 340.25v.01c-.21.28-.46.59-.73.95-8.46 10.99-44.37 57.7-44.37 58.32v4.59h-53.87v-4.81l98.97-126.51zm-69.16-118.9-90.3 113.43h-1.13v-71.55h2.45l31.38-39.54v-2.34z" fill="#58b947"/><path d="m402.86 221.35v2.34l-31.38 39.54h-2.45v-41.88z" fill="#58b947"/><g fill="none"><g stroke="#231f20"><path d="m529.62 340.26v302h-160.59v-420.91h160.59v118.9m60.57 63.95h160.59v238.35h-160.59z" stroke-width="21"/><path d="m376 404-6.97.12h160.09" stroke-width="21"/><path d="m371.48 263.23 31.38-39.54m-32.7 111.09 90.3-113.43.06-.08m-85.45 175.85 137.93-175.77.45-.57m-82.8 178.53 98.97-126.51.66-.84m-.28 67.8c.09-.13.18-.24.25-.33m-45.73 60.1c0-.62 35.91-47.33 44.37-58.32.271-.36.521-.67.73-.95v-.01c.08-.11.16-.21.229-.3m-45.329 59.58v.01m45.48-59.78-.15.19m.4-.52.4-.52" stroke-width="14"/></g><path d="m0 0h850.394v850.394h-850.394z"/><path d="m126 223.745 191.259.241m-75.219-87.048 76.681 87.37-76.812 87.348m-115.909-87.911v168.151m0 0h70.394m-70.394-90.568h70.394" stroke="#000" stroke-linecap="round" stroke-linejoin="round" stroke-width="16.349"/></g></svg>

<svg xmlns="http://www.w3.org/2000/svg" xmlns:xlink="http://www.w3.org/1999/xlink" width="850.394" height="850.394" viewBox="0 0 850.394 850.394" overflow="visible"><pattern x="368" y="480.385" width="71.999" height="72" patternUnits="userSpaceOnUse" id="a" viewBox="28.856 -76.621 71.999 72"><path fill="none" d="M28.856-4.621v-72h71.999v72z"/><path fill="#fff" d="M5.106-10.621l6 6M5.106-4.621l6-6"/><path fill="none" stroke="#231f20" stroke-width=".3" stroke-linejoin="round" d="M21.372-66.105l17.999-18M21.372-60.105l23.999-24M21.372-54.105l29.999-30M21.372-48.105l35.999-36M21.372-42.105l41.999-42M21.372-36.105l47.999-48M21.372-30.105l53.999-54M21.372-24.105l59.999-60M21.372-18.105l65.999-66M21.372-12.105l71.999-72M21.372-6.105l77.999-78M21.372-.106l83.999-83.999M27.372-.106l77.999-77.999M33.371-.106l72-71.999M39.371-.106l66-65.999M45.371-.106l60-59.999M51.371-.106l54-53.999M57.371-.106l48-47.999M63.371-.106l42-41.999M69.371-.106l36-35.999M75.371-.106l30-29.999M81.371-.106l24-23.999M87.371-.106l18-17.999M93.371-.106l12-11.999"/><path fill="none" stroke="#231f20" stroke-width=".3" stroke-linejoin="bevel" d="M.106-63.121l10-10"/></pattern><path fill="#abd150" d="M590.19 404.2h160.59v238.35H590.19z"/><path fill="#58b947" d="M513 221.35h16.62v51.45l-98.97 126.51v4.81h-61.62v-69.34h1.13l90.3-113.43zM529.62 340.26v63.86h-45.1v-4.59l44.37-58.32c.27-.36.52-.67.73-.95z"/><path fill="#abd150" d="M529.62 404.12v238.14H369.03V404.12h160.09z"/><pattern id="b" xlink:href="#a" patternTransform="translate(48373.29 45342.605) scale(6.7617)"/><path d="M528.89 341.21l-44.37 58.32c0-.62 35.91-47.33 44.37-58.32z" fill="url(#b)"/><path d="M529.62 340.25v.01c-.21.28-.46.59-.73.95-8.46 10.99-44.37 57.7-44.37 58.32v4.59h-53.87v-4.81l98.97-126.51v67.45zM460.46 221.35l-90.3 113.43h-1.13v-71.55h2.45l31.38-39.54v-2.34z" fill="#58b947"/><path fill="#58b947" d="M402.86 221.35v2.34l-31.38 39.54h-2.45v-41.88z"/><g fill="none" stroke="#231f20"><path stroke-width="21" d="M529.62 340.26v302H369.03V221.35h160.59v118.9M590.19 404.2h160.59v238.35H590.19z"/><path stroke-width="21" d="M376 404l-6.97.12h160.09"/><path stroke-width="14" d="M371.48 263.23l31.38-39.54M370.16 334.78l90.3-113.43.06-.08M375.07 397.12L513 221.35l.45-.57M430.65 399.31l98.97-126.51.66-.84M530 339.76c.09-.13.18-.24.25-.33M484.52 399.53c0-.62 35.91-47.33 44.37-58.32.271-.36.521-.67.73-.95v-.01c.08-.11.16-.21.229-.3M484.52 399.53v.01M530 339.76l-.15.19M530.25 339.43l.4-.52"/></g><path fill="none" d="M0 0h850.394v850.394H0z"/><path fill="none" stroke="#000" stroke-width="16.349" stroke-linecap="round" stroke-linejoin="round" d="M126 223.745l191.259.241M242.04 136.938l76.681 87.37-76.812 87.348M126 223.745v168.151M126 391.896h70.394M126 301.328h70.394"/></svg>
